contributed-vectors/blockchain.svg

<?xml version="1.0" encoding="UTF-8" standalone="no"?>
<svg
   xmlns:dc="http://purl.org/dc/elements/1.1/"
   xmlns:cc="http://creativecommons.org/ns#"
   xmlns:rdf="http://www.w3.org/1999/02/22-rdf-syntax-ns#"
   xmlns:svg="http://www.w3.org/2000/svg"
   xmlns="http://www.w3.org/2000/svg"
   version="1.1"
   id="svg2"
   viewBox="0 0 192 192"
   height="192"
   width="192">
  <metadata
     id="metadata20">
    <rdf:RDF>
      <cc:Work
         rdf:about="">
        <dc:format>image/svg+xml</dc:format>
        <dc:type
           rdf:resource="http://purl.org/dc/dcmitype/StillImage" />
        <dc:title></dc:title>
      </cc:Work>
    </rdf:RDF>
  </metadata>
  <defs
     id="defs18" />
  <style
     type="text/css"
     id="style3349">
	.st0{fill:#00AEE6;}
	.st1{fill:#123962;}
	.st2{fill:#B1D4E5;}
	.st3{fill:#2754BA;}
	.st4{fill:#799EB2;}
</style>
  <g
     id="g4274">
    <path
       style="fill:#9abeff;fill-opacity:1"
       id="Shape"
       class="st0"
       d="M 76.157539,96.039409 44.201573,127.97073 84.357537,168.1267 c 6.462658,6.45649 16.929823,6.45649 23.392483,0 L 147.87518,127.97073 115.86993,96.039409 96.081502,76.115447 76.157539,96.039409 Z" />
    <path
       style="fill:#54688c;fill-opacity:1"
       id="Shape_1_"
       class="st1"
       d="M 44.201573,63.960228 23.846356,84.27232 c -6.456497,6.462658 -6.456497,16.92982 0,23.39248 L 44.201573,127.97073 76.157539,96.039409 96.081502,76.115447 64.00232,44.159481 44.201573,63.960228 Z" />
    <path
       style="fill:#b1d4e5"
       id="Shape_2_"
       class="st2"
       d="m 128.00666,108.1207 19.86236,19.85003 20.30593,-20.30593 c 6.4565,-6.46266 6.4565,-16.929822 0,-23.39248 l -8.15071,-8.150712 -32.01758,31.999092 z" />
    <polygon
       style="fill:#b1d4e5"
       id="Shape_3_"
       class="st2"
       points="1769.3,408.4 1769.3,408.4 1249.9,927.8 1572,1250 1572,1250 1249.9,927.8 "
       transform="matrix(0.0616078,0,0,0.0616078,19.003983,18.95573)" />
    <polygon
       style="fill:#728dbe;fill-opacity:1"
       id="Shape_4_"
       class="st3"
       points="2288.8,927.8 2091.8,730.5 1769.3,408.4 1249.9,927.8 1572,1250 1769.3,1447.3 "
       transform="matrix(0.0616078,0,0,0.0616078,19.003983,18.95573)" />
    <path
       style="fill:#799eb2"
       id="Shape_5_"
       class="st4"
       d="M 128.00666,44.159481 107.70073,23.804264 c -6.46266,-6.456498 -16.929821,-6.456498 -23.392479,0 L 64.00232,44.159481 96.081502,76.115447 128.00666,44.159481 Z" />
  </g>
</svg>

<svg xmlns="http://www.w3.org/2000/svg" version="1.1" id="svg2" height="192" width="192"><style type="text/css" id="style3349">.st2{fill:#b1d4e5}</style><g id="g4274"><path id="Shape" d="M76.158 96.04l-31.956 31.93 40.156 40.157c6.462 6.456 16.93 6.456 23.392 0l40.125-40.156-32.005-31.932-19.788-19.924L76.158 96.04z" fill="#9abeff" fill-opacity="1"/><path id="Shape_1_" d="M44.202 63.96L23.846 84.272c-6.456 6.463-6.456 16.93 0 23.393l20.356 20.306 31.956-31.932 19.924-19.924-32.08-31.956-19.8 19.801z" fill="#54688c" fill-opacity="1"/><path id="Shape_2_" class="st2" d="M128.007 108.12l19.862 19.85 20.306-20.305c6.456-6.463 6.456-16.93 0-23.393l-8.15-8.15-32.018 31.999z" fill="#b1d4e5"/><path id="Shape_3_" class="st2" transform="matrix(.0616 0 0 .0616 19.004 18.956)" fill="#b1d4e5" d="M1769.3 408.4l-519.4 519.4L1572 1250l-322.1-322.2z"/><path id="Shape_4_" transform="matrix(.0616 0 0 .0616 19.004 18.956)" fill="#728dbe" fill-opacity="1" d="M2288.8 927.8l-197-197.3-322.5-322.1-519.4 519.4L1572 1250l197.3 197.3z"/><path id="Shape_5_" d="M128.007 44.16L107.7 23.803c-6.463-6.456-16.93-6.456-23.393 0L64.002 44.16l32.08 31.956 31.925-31.956z" fill="#799eb2"/></g></svg>
